resources/svg/clipboard-tick.svg

<svg xmlns="http://www.w3.org/2000/svg" viewBox="0 0 15 15" fill="currentColor"><path fill-rule="evenodd" clip-rule="evenodd" d="M4 0H11V1H14V13.5C14 14.3284 13.3284 15 12.5 15H2.5C1.67157 15 1 14.3284 1 13.5V1H4V0ZM5 1H10V2.5C10 2.77614 9.77614 3 9.5 3H5.5C5.22386 3 5 2.77614 5 2.5V1ZM7.02439 11.2315L10.8763 6.82928L10.1237 6.17078L6.97568 9.76857L5.35359 8.14647L4.64648 8.85358L7.02439 11.2315Z" fill="black"/></svg>

<svg xmlns="http://www.w3.org/2000/svg" viewBox="0 0 15 15" fill="currentColor"><path fill-rule="evenodd" clip-rule="evenodd" d="M4 0h7v1h3v12.5a1.5 1.5 0 01-1.5 1.5h-10A1.5 1.5 0 011 13.5V1h3V0zm1 1h5v1.5a.5.5 0 01-.5.5h-4a.5.5 0 01-.5-.5V1zm2.024 10.232l3.852-4.403-.752-.658-3.148 3.598-1.622-1.623-.708.708 2.378 2.378z" fill="currentColor"/></svg>
